public/editor-src/editor/icons/fa/robot.svg

<svg xmlns="http://www.w3.org/2000/svg" viewBox="0 0 640 512"><path d="M32 224h32v192H32a31.962 31.962 0 0 1-32-32V256a31.962 31.962 0 0 1 32-32Zm512-48v272a64.063 64.063 0 0 1-64 64H160a64.063 64.063 0 0 1-64-64V176a79.974 79.974 0 0 1 80-80h112V32a32 32 0 0 1 64 0v64h112a79.974 79.974 0 0 1 80 80Zm-280 80a40 40 0 1 0-40 40 39.997 39.997 0 0 0 40-40Zm-8 128h-64v32h64Zm96 0h-64v32h64Zm104-128a40 40 0 1 0-40 40 39.997 39.997 0 0 0 40-40Zm-8 128h-64v32h64Zm192-128v128a31.962 31.962 0 0 1-32 32h-32V224h32a31.962 31.962 0 0 1 32 32Z"/></svg>

<svg xmlns="http://www.w3.org/2000/svg" viewBox="0 0 640 512"><path d="M32,224H64V416H32A31.96166,31.96166,0,0,1,0,384V256A31.96166,31.96166,0,0,1,32,224Zm512-48V448a64.06328,64.06328,0,0,1-64,64H160a64.06328,64.06328,0,0,1-64-64V176a79.974,79.974,0,0,1,80-80H288V32a32,32,0,0,1,64,0V96H464A79.974,79.974,0,0,1,544,176ZM264,256a40,40,0,1,0-40,40A39.997,39.997,0,0,0,264,256Zm-8,128H192v32h64Zm96,0H288v32h64ZM456,256a40,40,0,1,0-40,40A39.997,39.997,0,0,0,456,256Zm-8,128H384v32h64ZM640,256V384a31.96166,31.96166,0,0,1-32,32H576V224h32A31.96166,31.96166,0,0,1,640,256Z"/></svg>
